newicons/theotown.svg

<?xml version="1.0" encoding="UTF-8" standalone="no"?>
<svg
   viewBox="0 0 48 48"
   version="1.1"
   id="svg1"
   sodipodi:docname="theotown.svg"
   inkscape:version="1.2.2 (b0a8486541, 2022-12-01)"
   xml:space="preserve"
   xmlns:inkscape="http://www.inkscape.org/namespaces/inkscape"
   xmlns:sodipodi="http://sodipodi.sourceforge.net/DTD/sodipodi-0.dtd"
   xmlns="http://www.w3.org/2000/svg"
   xmlns:svg="http://www.w3.org/2000/svg"><sodipodi:namedview
     id="namedview1"
     pagecolor="#505050"
     bordercolor="#eeeeee"
     borderopacity="1"
     inkscape:showpageshadow="0"
     inkscape:pageopacity="0"
     inkscape:pagecheckerboard="0"
     inkscape:deskcolor="#505050"
     inkscape:zoom="17.8125"
     inkscape:cx="33.515789"
     inkscape:cy="29.249123"
     inkscape:window-width="1918"
     inkscape:window-height="1053"
     inkscape:window-x="0"
     inkscape:window-y="0"
     inkscape:window-maximized="1"
     inkscape:current-layer="svg1"
     showgrid="false" /><defs
     id="defs1"><style
       id="style1">.a { fill:none;stroke:#fff;stroke-linecap:round;stroke-linejoin:round; }
</style></defs><g
     id="g19500"><path
       style="fill:none;stroke:#ffffff;stroke-linecap:round;stroke-linejoin:round;stroke-dashoffset:3.6;stroke-opacity:1"
       d="m 9.5,5.5 h 29 c 2.216,0 4,1.784 4,4 v 29 c 0,2.216 -1.784,4 -4,4 h -29 c -2.216,0 -4,-1.784 -4,-4 v -29 c 0,-2.216 1.784,-4 4,-4 z"
       id="path18914" /><g
       id="g19400"><path
         style="fill:none;stroke:#ffffff;stroke-linecap:round;stroke-linejoin:round;stroke-dashoffset:3.6;stroke-opacity:1"
         d="m 6.5732483,41.22721 6.7441177,-3.347968 0.98245,1.24211 v 3.379115"
         id="path18906" /><path
         style="fill:none;stroke:#ffffff;stroke-linecap:round;stroke-linejoin:round;stroke-dashoffset:3.6;stroke-opacity:1"
         d="M 14.299816,39.121352 8.0430946,42.227365"
         id="path18904" /></g><path
       style="fill:none;stroke:#ffffff;stroke-linecap:round;stroke-linejoin:round;stroke-dashoffset:3.6;stroke-opacity:1"
       d="m 42.499085,26.264046 -4.83571,2.400582 2.000309,0.992701 -18.107214,8.988929 2.00002,0.992847 -5.763577,2.861201"
       id="path18902" /><g
       id="g19077"><path
         style="fill:none;stroke:#ffffff;stroke-linecap:round;stroke-linejoin:round;stroke-dashoffset:3.6;stroke-opacity:1"
         d="m 31.048588,20.810592 7.281687,-3.614584 -2.68e-4,-4.150425 -0.825917,-1.479102 -8.045213,3.993871 1.589711,1.097802 7.281419,-3.612571"
         id="path18900" /><path
         style="fill:none;stroke:#ffffff;stroke-linecap:round;stroke-linejoin:round;stroke-dashoffset:3.6;stroke-opacity:1"
         d="m 31.048588,16.658154 v 4.152438 l -1.590141,-0.788961 4.3e-4,-4.461279"
         id="path18898" /></g><g
       id="g19081"><path
         style="fill:none;stroke:#ffffff;stroke-linecap:round;stroke-linejoin:round;stroke-dashoffset:3.6;stroke-opacity:1"
         d="m 19.112557,20.731198 -7.281687,-3.614584 2.68e-4,-4.150425 0.825917,-1.479102 8.045213,3.993871 -1.589711,1.097802 -7.281419,-3.612571"
         id="path18894" /><path
         style="fill:none;stroke:#ffffff;stroke-linecap:round;stroke-linejoin:round;stroke-dashoffset:3.6;stroke-opacity:1"
         d="m 19.112557,16.57876 v 4.152438 l 1.590141,-0.788961 -4.3e-4,-4.461279"
         id="path18892" /></g><g
       id="g19396"><path
         style="fill:none;stroke:#ffffff;stroke-linecap:round;stroke-linejoin:round;stroke-dashoffset:3.6;stroke-opacity:1"
         d="M 5.5008593,29.363328 10.012431,27.124977"
         id="path18888" /><path
         style="fill:none;stroke:#ffffff;stroke-linecap:round;stroke-linejoin:round;stroke-dashoffset:3.6;stroke-opacity:1"
         d="M 5.5000697,33.515444 10.012699,31.275402 10.012431,27.124977 9.1865124,25.645875 5.5007211,27.475606"
         id="path18886" /></g><g
       id="g19242"><path
         style="fill:none;stroke:#ffffff;stroke-linecap:round;stroke-linejoin:round;stroke-dashoffset:3.6;stroke-opacity:1"
         d="M 20.744331,5.560352 22.334042,6.658154 24.66807,5.500159"
         id="path18884" /><path
         style="fill:none;stroke:#ffffff;stroke-linecap:round;stroke-linejoin:round;stroke-dashoffset:3.6;stroke-opacity:1"
         d="M 22.334042,10.810592 29.234707,7.385145 V 5.5001589"
         id="path18882" /><path
         style="fill:none;stroke:#ffffff;stroke-linecap:round;stroke-linejoin:round;stroke-dashoffset:3.6;stroke-opacity:1"
         d="m 22.334042,6.658154 v 4.152438 l -1.590141,-0.788961 4.3e-4,-4.461279"
         id="path18880" /></g><g
       id="g19392"><path
         style="fill:none;stroke:#ffffff;stroke-linecap:round;stroke-linejoin:round;stroke-dashoffset:3.6;stroke-opacity:1"
         d="M 5.5000572,19.807783 9.6701441,21.877931 8.0804297,22.975733 5.4999336,21.695458"
         id="path18878" /><path
         style="fill:none;stroke:#ffffff;stroke-linecap:round;stroke-linejoin:round;stroke-dashoffset:3.6;stroke-opacity:1"
         d="m 9.5946651,26.37687 0.075909,-0.03766 -4.3e-4,-4.461279"
         id="path18876" /><path
         style="fill:none;stroke:#ffffff;stroke-linecap:round;stroke-linejoin:round;stroke-dashoffset:3.6;stroke-opacity:1"
         d="m 8.0804298,22.97573 v 3.218823"
         id="path18874" /></g><path
       style="fill:none;stroke:#ffffff;stroke-linecap:round;stroke-linejoin:round;stroke-dashoffset:3.6;stroke-opacity:1"
       d="M 29.234019,7.3844886 42.499536,13.969855"
       id="path18872" /><path
       style="fill:none;stroke:#ffffff;stroke-linecap:round;stroke-linejoin:round;stroke-dashoffset:3.6;stroke-opacity:1"
       d="m 36.322125,5.4997108 6.049136,3.0029573"
       id="path18870" /><g
       id="g18986"><path
         style="fill:none;stroke:#ffffff;stroke-linecap:round;stroke-linejoin:round;stroke-dashoffset:3.6;stroke-opacity:1"
         d="m 40.942022,9.4753005 -1e-6,1.9999365"
         id="path18868" /><path
         style="fill:none;stroke:#ffffff;stroke-linecap:round;stroke-linejoin:round;stroke-dashoffset:3.6;stroke-opacity:1"
         d="m 31.252542,5.5006264 1e-6,1.1640255"
         id="path18866" /><path
         style="fill:none;stroke:#ffffff;stroke-linecap:round;stroke-linejoin:round;stroke-dashoffset:3.6;stroke-opacity:1"
         d="M 32.636754,5.5006902 V 7.3521937"
         id="path18864" /><path
         style="fill:none;stroke:#ffffff;stroke-linecap:round;stroke-linejoin:round;stroke-dashoffset:3.6;stroke-opacity:1"
         d="m 34.020966,6.0397356 -1e-6,1.9999363"
         id="path18862" /><path
         style="fill:none;stroke:#ffffff;stroke-linecap:round;stroke-linejoin:round;stroke-dashoffset:3.6;stroke-opacity:1"
         d="m 35.405175,6.7252604 10e-7,1.9999364"
         id="path18860" /><path
         style="fill:none;stroke:#ffffff;stroke-linecap:round;stroke-linejoin:round;stroke-dashoffset:3.6;stroke-opacity:1"
         d="M 36.789387,7.4127384 V 9.4126745"
         id="path18858" /><path
         style="fill:none;stroke:#ffffff;stroke-linecap:round;stroke-linejoin:round;stroke-dashoffset:3.6;stroke-opacity:1"
         d="M 38.173598,8.1002804 V 10.100217"
         id="path18856" /><path
         style="fill:none;stroke:#ffffff;stroke-linecap:round;stroke-linejoin:round;stroke-dashoffset:3.6;stroke-opacity:1"
         d="M 39.557809,8.7877583 V 10.787694"
         id="path18854" /></g><g
       id="g19007"><path
         style="fill:none;stroke:#ffffff;stroke-linecap:round;stroke-linejoin:round;stroke-dashoffset:3.6;stroke-opacity:1"
         d="M 25.302306,15.444091 V 14.187152"
         id="path18852" /><path
         style="fill:none;stroke:#ffffff;stroke-linecap:round;stroke-linejoin:round;stroke-dashoffset:3.6;stroke-opacity:1"
         d="m 20.691201,19.947736 8.767538,-10e-7"
         id="path18850" /><path
         style="fill:none;stroke:#ffffff;stroke-linecap:round;stroke-linejoin:round;stroke-dashoffset:3.6;stroke-opacity:1"
         d="M 19.650189,14.930185 H 30.730218"
         id="path18848" /><path
         style="fill:none;stroke:#ffffff;stroke-linecap:round;stroke-linejoin:round;stroke-dashoffset:3.6;stroke-opacity:1"
         d="m 23.984712,14.929398 1e-6,5.017337"
         id="path18846" /><path
         style="fill:none;stroke:#ffffff;stroke-linecap:round;stroke-linejoin:round;stroke-dashoffset:3.6;stroke-opacity:1"
         d="m 20.703401,16.940842 h 8.754774"
         id="path18844" /><g
         id="g18996"><path
           style="fill:none;stroke:#ffffff;stroke-linecap:round;stroke-linejoin:round;stroke-dashoffset:3.6;stroke-opacity:1"
           d="m 22.270586,18.20399 v 0.448171"
           id="path18842" /><path
           style="fill:none;stroke:#ffffff;stroke-linecap:round;stroke-linejoin:round;stroke-dashoffset:3.6;stroke-opacity:1"
           d="m 25.750447,18.20399 v 0.448171"
           id="path18840" /><path
           style="fill:none;stroke:#ffffff;stroke-linecap:round;stroke-linejoin:round;stroke-dashoffset:3.6;stroke-opacity:1"
           d="m 27.669129,18.20399 v 0.448171"
           id="path18838" /></g></g><g
       id="g19161"
       style="display:inline"><path
         style="fill:none;stroke:#ffffff;stroke-linecap:round;stroke-linejoin:round;stroke-dashoffset:3.6;stroke-opacity:1"
         d="M 11.8311,16.777375 11.16297,17.109032 5.5010696,14.298146"
         id="path18836" /><path
         style="fill:none;stroke:#ffffff;stroke-linecap:round;stroke-linejoin:round;stroke-dashoffset:3.6;stroke-opacity:1"
         d="M 11.16297,11.670432 V 17.10881"
         id="path18834" /><path
         style="fill:none;stroke:#ffffff;stroke-linecap:round;stroke-linejoin:round;stroke-dashoffset:3.6;stroke-opacity:1"
         d="M 16.502784,9.0197724 11.16297,11.670432"
         id="path18832" /><path
         style="fill:none;stroke:#ffffff;stroke-linecap:round;stroke-linejoin:round;stroke-dashoffset:3.6;stroke-opacity:1"
         d="M 5.5516929,8.8846805 11.16297,11.670432 10.8542,9.8949936 6.9604988,7.9619435"
         id="path18830" /><path
         style="fill:none;stroke:#ffffff;stroke-linecap:round;stroke-linejoin:round;stroke-dashoffset:3.6;stroke-opacity:1"
         d="m 5.5931261,8.6407414 5.0683249,-2.515894 5.841333,2.899964 V 13.39419"
         id="path18828" /><path
         style="fill:none;stroke:#ffffff;stroke-linecap:round;stroke-linejoin:round;stroke-dashoffset:3.6;stroke-opacity:1"
         d="M 14.554909,8.0579784 10.8542,9.8949936"
         id="path18826" /><g
         id="g18991"><path
           style="fill:none;stroke:#ffffff;stroke-linecap:round;stroke-linejoin:round;stroke-dashoffset:3.6;stroke-opacity:1"
           d="M 9.8119006,13.321552 V 14.38199"
           id="path18824" /><path
           style="fill:none;stroke:#ffffff;stroke-linecap:round;stroke-linejoin:round;stroke-dashoffset:3.6;stroke-opacity:1"
           d="m 8.3171642,12.581396 -1e-7,1.058483"
           id="path18822" /><path
           style="fill:none;stroke:#ffffff;stroke-linecap:round;stroke-linejoin:round;stroke-dashoffset:3.6;stroke-opacity:1"
           d="m 6.822428,11.838806 -1e-7,1.058771"
           id="path18820" /></g></g><g
       id="g19248"><path
         style="fill:none;stroke:#ffffff;stroke-linecap:round;stroke-linejoin:round;stroke-dashoffset:3.6;stroke-opacity:1"
         d="m 20.744995,9.947735 -4.242168,-4e-7"
         id="path18818" /><path
         style="fill:none;stroke:#ffffff;stroke-linecap:round;stroke-linejoin:round;stroke-dashoffset:3.6;stroke-opacity:1"
         d="m 17.834295,5.4996831 -1e-6,4.4470519"
         id="path18816" /><path
         style="display:inline;fill:none;stroke:#ffffff;stroke-linecap:round;stroke-linejoin:round;stroke-dashoffset:3.6;stroke-opacity:1"
         d="m 20.744476,6.9408421 -8.383644,-1e-7"
         id="path18814" /><path
         style="fill:none;stroke:#ffffff;stroke-linecap:round;stroke-linejoin:round;stroke-dashoffset:3.6;stroke-opacity:1"
         d="m 19.310238,8.1957686 v 0.448171"
         id="path18812" /></g><g
       id="g19426"><path
         style="fill:none;stroke:#ffffff;stroke-linecap:round;stroke-linejoin:round;stroke-dashoffset:3.6;stroke-opacity:1"
         d="M 42.500703,21.903105 5.8336796,40.105639"
         id="path18912" /><path
         style="fill:none;stroke:#ffffff;stroke-linecap:round;stroke-linejoin:round;stroke-dashoffset:3.6;stroke-opacity:1"
         d="m 5.4998627,16.043031 17.7851863,8.829064 3.713177,-4.42e-4 15.50208,-7.695667"
         id="path18910" /><path
         style="fill:none;stroke:#ffffff;stroke-linecap:round;stroke-linejoin:round;stroke-dashoffset:3.6;stroke-opacity:1"
         d="M 5.4992168,35.454884 18.489855,29.005968 V 27.443705 L 9.6693028,23.064937"
         id="path18908" /><g
         id="g19412"><path
           style="fill:none;stroke:#ffffff;stroke-linecap:round;stroke-linejoin:round;stroke-dashoffset:3.6;stroke-opacity:1"
           d="m 28.577738,25.571265 1.013964,-0.50336"
           id="path18810" /><path
           style="fill:none;stroke:#ffffff;stroke-linecap:round;stroke-linejoin:round;stroke-dashoffset:3.6;stroke-opacity:1"
           d="m 30.260287,26.40743 1.013962,-0.50336"
           id="path18808" /></g><g
         id="g19404"><path
           style="fill:none;stroke:#ffffff;stroke-linecap:round;stroke-linejoin:round;stroke-dashoffset:3.6;stroke-opacity:1"
           d="m 18.16947,30.772607 1.013964,-0.50336"
           id="path18806" /><path
           style="fill:none;stroke:#ffffff;stroke-linecap:round;stroke-linejoin:round;stroke-dashoffset:3.6;stroke-opacity:1"
           d="m 19.852019,31.608772 1.013962,-0.50336"
           id="path18804" /></g><g
         id="g19408"><path
           style="fill:none;stroke:#ffffff;stroke-linecap:round;stroke-linejoin:round;stroke-dashoffset:3.6;stroke-opacity:1"
           d="m 18.39403,25.701912 1.013964,0.50336"
           id="path18802" /><path
           style="fill:none;stroke:#ffffff;stroke-linecap:round;stroke-linejoin:round;stroke-dashoffset:3.6;stroke-opacity:1"
           d="m 20.076579,24.865747 1.013962,0.50336"
           id="path15795" /></g></g></g></svg>

<?xml version="1.0" encoding="UTF-8"?><svg id="b" xmlns="http://www.w3.org/2000/svg" viewBox="0 0 48 48"><defs><style>.bx{fill:none;stroke:#fff;stroke-linecap:round;stroke-linejoin:round;}</style></defs><g id="c"><g id="d"><path id="e" class="bx" d="M6.574,41.2264l6.7438-3.3478.9824,1.2421v3.379"/><path id="f" class="bx" d="M14.3002,39.1207l-6.2565,3.1059"/></g><path id="g" class="bx" d="M42.4984,26.2639l-4.8355,2.4005,2.0002.9927-18.1065,8.9886,1.9999.9928-5.7633,2.8611"/><g id="h"><path id="i" class="bx" d="M31.0483,20.8106l7.2814-3.6144-.0003-4.1503-.8259-1.479-8.0449,3.9937,1.5896,1.0978,7.2811-3.6124"/><path id="j" class="bx" d="M31.0483,16.6584v4.1523l-1.5901-.7889.0004-4.4611"/></g><g id="k"><path id="l" class="bx" d="M19.1128,20.7313l-7.2814-3.6144.0003-4.1503.8259-1.479,8.0449,3.9937-1.5896,1.0978-7.2811-3.6124"/><path id="m" class="bx" d="M19.1128,16.579v4.1523l1.5901-.7889-.0004-4.4611"/></g><g id="n"><path id="o" class="bx" d="M5.5016,29.363l4.5114-2.2383"/><path id="p" class="bx" d="M5.5009,33.515l4.5124-2.24-.0003-4.1503-.8259-1.479-3.6856,1.8297"/></g><g id="q"><path id="r" class="bx" d="M20.7445,5.561l1.5896,1.0978,2.3339-1.1579"/><path id="s" class="bx" d="M22.3341,10.811l6.9004-3.4253v-1.8849"/><path id="t" class="bx" d="M22.3341,6.6588v4.1523l-1.5901-.7889.0004-4.4611"/></g><g id="u"><path id="v" class="bx" d="M5.5008,19.8079l4.1699,2.0701-1.5897,1.0978-2.5804-1.2802"/><path id="w" class="bx" d="M9.5953,26.3767l.0759-.0377-.0004-4.4611"/><path id="x" class="bx" d="M8.0811,22.9757v3.2187"/></g><path id="y" class="bx" d="M29.2338,7.3851l13.265,6.5851"/><path id="z" class="bx" d="M36.3217,5.5004l6.0489,3.0028"/><g id="aa"><path id="ab" class="bx" d="M40.9414,9.4758v1.9999"/><path id="ac" class="bx" d="M31.2523,5.5013v1.164"/><path id="ad" class="bx" d="M32.6364,5.5014v1.8514"/><path id="ae" class="bx" d="M34.0206,6.0404v1.9999"/><path id="af" class="bx" d="M35.4048,6.7259v1.9999"/><path id="ag" class="bx" d="M36.7889,7.4133v1.9999"/><path id="ah" class="bx" d="M38.1731,8.1008v1.9999"/><path id="ai" class="bx" d="M39.5572,8.7883v1.9999"/></g><g id="aj"><path id="ak" class="bx" d="M25.3023,15.4444v-1.2569"/><path id="al" class="bx" d="M20.6914,19.9478h8.7672"/><path id="am" class="bx" d="M19.6504,14.9305h11.0796"/><path id="an" class="bx" d="M23.9848,14.9297v5.0171"/><path id="ao" class="bx" d="M20.7036,16.941h8.7544"/><g id="ap"><path id="aq" class="bx" d="M22.2707,18.2041v.4482"/><path id="ar" class="bx" d="M25.7504,18.2041v.4482"/><path id="as" class="bx" d="M27.669,18.2041v.4482"/></g></g><g id="at"><path id="au" class="bx" d="M11.8316,16.7776l-.6681.3316-5.6617-2.8108"/><path id="av" class="bx" d="M11.1635,11.6709v5.4382"/><path id="aw" class="bx" d="M16.5031,9.0203l-5.3396,2.6506"/><path id="ax" class="bx" d="M5.5525,8.8852l5.6111,2.7856-.3088-1.7754-3.8935-1.933"/><path id="ay" class="bx" d="M5.5939,8.6413l5.0681-2.5158,5.8411,2.8998v4.3692"/><path id="az" class="bx" d="M14.5553,8.0585l-3.7006,1.8369"/><g id="ba"><path id="bb" class="bx" d="M9.8125,13.3219v1.0604"/><path id="bc" class="bx" d="M8.3178,12.5818v1.0584"/><path id="bd" class="bx" d="M6.8232,11.8392v1.0587"/></g></g><g id="be"><path id="bf" class="bx" d="M20.7452,9.9482h-4.242"/><path id="bg" class="bx" d="M17.8346,5.5003v4.4469"/><path id="bh" class="bx" d="M20.7446,6.9415h-8.3833"/><path id="bi" class="bx" d="M19.3105,8.1963v.4482"/></g><g id="bj"><path id="bk" class="bx" d="M42.5,21.9031L5.8344,40.1049"/><path id="bl" class="bx" d="M5.5006,16.0433l17.7845,8.8287,3.713-.0004,15.5015-7.6954"/><path id="bm" class="bx" d="M5.5,35.4543l12.9901-6.4487v-1.5622l-8.8202-4.3786"/><g id="bn"><path id="bo" class="bx" d="M28.5776,25.5711l1.0139-.5033"/><path id="bp" class="bx" d="M30.2601,26.4073l1.0139-.5033"/></g><g id="bq"><path id="br" class="bx" d="M18.1697,30.7723l1.0139-.5033"/><path id="bs" class="bx" d="M19.8522,31.6084l1.0139-.5033"/></g><g id="bt"><path id="bu" class="bx" d="M18.3943,25.7018l1.0139.5033"/><path id="bv" class="bx" d="M20.0768,24.8656l1.0139.5033"/></g></g></g><path id="bw" class="bx" d="M9.5,5.5h29c2.216,0,4,1.784,4,4v29c0,2.216-1.784,4-4,4H9.5c-2.216,0-4-1.784-4-4V9.5c0-2.216,1.784-4,4-4Z"/></svg>
